X: 38
T:Kinnegad Slashers (#237b), The
M:6/8
L:1/8
S:O'Farrell's Pocket Companion 1804-10
R:Jig
K:D
B/2c/2|d>ed dAF|A>BA ABc|d>ed dAF|Eee e2 f|
d>ed dAF|ABA A2 g|f>ef dBA|Bdd d2:|
|:A|dfa afd|cde ecA|dfa afd|faa a2 A|
dfa afd|cde eag|fef dBA|Bdd d2:||
%
% [POSSIBLE ORIGIN OF "Turkey in the Straw".
% SEE NOTES TO TUNE # 237.]

